X:5954
T:Gan Ainm
R:strathspey
S:Tommy Peoples & Dermot Byrnes
H:
N:
D:Concert, Galway 
Z:Adrian Scahill
M:4/4
L:1/8
K:G
A,2EA, B,A,EA,|A,2EA, B,A,G,B,|A,2EA, B,A,EA,|B,DGE (3DEC (3B,A,G,|\
A,2EA, B,A,EA,|A,2EA, B,A,G,B,|A,2EA, B,A,EA,|B,DGE DB,G,d||\
K:D\
c<e AB cAeA|ceAf (3gag (3fed|c<e AB cAce|gfge d<BGB|\
c<e AB cAeA|ceAf (3gag (3fed|A<a A<g A<f eG|E<GD=C B,A,B,G,||
